X: 1
T: THE BROKEN LANTERN -- JIG
B: Ryan's Mammoth Collection of Fiddle Tunes
R: jig
M: 6/8
L: 1/8
Z: Contributed 20000421161346 by John Chambers jchambers:casc.com
K: C
uG \
| Gcc {d}cBc | Add {e}d^cd | "4"edB G2G | AGE C2G |
| Gcc {d}cBc | Add {e}d^cd | "4"edB GAB | c2e c2 :|
|: ug \
| ecg ceg | efg a2ug | fdg ecg | dBg G2g |
| ecg ceg | efg a2ug | fdg ecg | dBg c2 :|
